contributed-vectors/dashlane.svg

<svg width="192" height="192" viewBox="0 0 192 192" fill="none" xmlns="http://www.w3.org/2000/svg">
<g clip-path="url(#clip0)">
<path d="M172 28.59V162.4C172 167.7 167.7 171.99 162.4 171.99H28.6C23.3 171.99 19 167.69 19 162.4V28.59C19 23.3 23.3 19 28.6 19H162.5C167.7 19 172 23.3 172 28.59Z" fill="#54688C"/>
<path d="M122.52 82.46C122.52 82.03 122.05 81.55 121.44 81.38L113.85 78.58C112.6 78.02 111.13 78.67 111.13 79.57V111.44C111.13 111.91 111.6 112.43 112.04 112.6L119.85 115.4C121.01 115.87 122.57 115.23 122.57 114.24V82.46H122.52Z" fill="white"/>
<path d="M108.29 71.33C108.29 70.9 107.82 70.42 107.21 70.25L99.6199 67.45C98.3699 66.89 96.8999 67.54 96.8999 68.44V87.8C96.8999 88.27 97.3699 88.79 97.8099 88.96L105.62 91.76C106.78 92.23 108.34 91.59 108.34 90.6V71.33H108.29Z" fill="white"/>
<path d="M108.29 106.18C108.29 105.71 107.82 105.27 107.21 105.1L99.6199 102.3C98.3699 101.74 96.8999 102.39 96.8999 103.29V122.66C96.8999 123.13 97.3699 123.65 97.8099 123.82L105.62 126.62C106.78 127.09 108.34 126.45 108.34 125.46V106.18H108.29Z" fill="white"/>
<path d="M94.0599 110.1C94.0599 109.63 93.6299 109.19 92.9799 109.02L85.3899 106.22C84.1399 105.66 82.6699 106.31 82.6699 107.21V127.87C82.6699 128.34 83.0999 128.86 83.5799 129.03L91.3899 131.83C92.5499 132.3 94.1099 131.66 94.1099 130.67L94.0599 110.1Z" fill="white"/>
<path d="M94.0599 63.09C94.0599 62.62 93.6299 62.18 92.9799 62.01L85.3899 59.21C84.0999 58.65 82.6699 59.3 82.6699 60.2V80.86C82.6699 81.29 83.0999 81.85 83.5799 82.02L91.3899 84.82C92.5499 85.25 94.1099 84.65 94.1099 83.66L94.0599 63.09Z" fill="white"/>
<path d="M79.8699 63.91C79.8699 63.44 79.4399 63 78.7899 62.83L71.1599 60.03C69.9099 59.47 68.4399 60.12 68.4399 61.02V127.14C68.4399 127.61 68.8699 128.13 69.3499 128.3L77.1599 131.1C78.3199 131.57 79.8799 130.93 79.8799 129.94V63.91H79.8699Z" fill="white"/>
</g>
<defs>
<clipPath id="clip0">
<rect width="192" height="192" fill="white"/>
</clipPath>
</defs>
</svg>

<svg xmlns="http://www.w3.org/2000/svg" width="192" height="192" fill="none"><g clip-path="url(#a)"><path fill="#54688C" d="M172 28.59V162.4c0 5.3-4.3 9.59-9.6 9.59H28.6c-5.3 0-9.6-4.3-9.6-9.59V28.59C19 23.3 23.3 19 28.6 19h133.9c5.2 0 9.5 4.3 9.5 9.59Z"/><path fill="#fff" d="M122.52 82.46c0-.43-.47-.91-1.08-1.08l-7.59-2.8c-1.25-.56-2.72.09-2.72.99v31.87c0 .47.47.99.91 1.16l7.81 2.8c1.16.47 2.72-.17 2.72-1.16V82.46h-.05ZM108.29 71.33c0-.43-.47-.91-1.08-1.08l-7.59-2.8c-1.25-.56-2.72.09-2.72.99V87.8c0 .47.47.99.91 1.16l7.81 2.8c1.16.47 2.72-.17 2.72-1.16V71.33h-.05ZM108.29 106.18c0-.47-.47-.91-1.08-1.08l-7.59-2.8c-1.25-.56-2.72.09-2.72.99v19.37c0 .47.47.99.91 1.16l7.81 2.8c1.16.47 2.72-.17 2.72-1.16v-19.28h-.05ZM94.06 110.1c0-.47-.43-.91-1.08-1.08l-7.59-2.8c-1.25-.56-2.72.09-2.72.99v20.66c0 .47.43.99.91 1.16l7.81 2.8c1.16.47 2.72-.17 2.72-1.16l-.05-20.57ZM94.06 63.09c0-.47-.43-.91-1.08-1.08l-7.59-2.8c-1.29-.56-2.72.09-2.72.99v20.66c0 .43.43.99.91 1.16l7.81 2.8c1.16.43 2.72-.17 2.72-1.16l-.05-20.57ZM79.87 63.91c0-.47-.43-.91-1.08-1.08l-7.63-2.8c-1.25-.56-2.72.09-2.72.99v66.12c0 .47.43.99.91 1.16l7.81 2.8c1.16.47 2.72-.17 2.72-1.16V63.91h-.01Z"/></g><defs><clipPath id="a"><path fill="#fff" d="M0 0h192v192H0z"/></clipPath></defs></svg>
